X:7
T:Heimat-Juiz. 1996  Bb  ABBCC
T:Margrit Spichtig-Hofer (6.9.1962)
T:Dirigenten-Notiz  Edi Gasser
C:Unterwalden (CH)
%%partsbox
P:ABBCC
R:Naturjodel
M:4/4
L:1/4
K:Bb
[P:A] "getragen" D/F/ B/d/ | g>f  d>B | F2  D/F/ B/d/ | g>f  e>d | c4 | F>FAc | e3f | g2f>c | 
d2D/F/ B/d/ | g>fd>B | F2D/F/ B/d/ | g>fe>d | c4 | F>FAc | e3f | g2fe | d4 ||  
L:1/4
M:3/4
[P:B] "ruhig" E>GB | E>GB | D>FB | d>cB | c>F A/c/ | e>dc | d2e | d3 | 
E>GB | E>GB | D>FB | d>cB | c>F A/c/ | edc | (B3 | B2)z ||  
L:1/8
M:2/4
[P:C] "lüpfig"  F F/F/ Ac | f>g f/e/d/c/ | d2 B>G | F F/F/ Bd | c2A>G | 
F F/F/ ce | d2B2 | F4 | F F/F/ Ac | f>g f/e/d/c/ | 
d2B>G | F F/F/ Bd | c2A>G | F F/F/ f>d | cc (B2 | B4) |] 
W:
%W:Reihenfolge: A - BB - CC
W:
W:notiert Edi Gasser. Angaben: Margrit Spichtig
W:UJV-Naturjodelsammlung: Code-Nr: 50-04
W:http://www.naturjodler.ch/code 50.htm  (with AUDIO *)
W:
W:* Don't miss the chance to listen to the orig. audio first of all
%Juni 18, 2018

